X:1
T:The Wagoner's Curse on the Railroad
M:2/4
L:1/8
K:D
D-E| F2 FF| F A2 F| F E2 D| E3 A/2A/2|B-G dB| A F2 D| ED DD| D zd-c|\
 B2 GG| G c2 B| A F2 F| F2 BA| G2 EE|E-A AG| F D2 D| D2||

